!!!OTL: 768. Pilgers Trost.
!!!COM: Fr. Schneider
!!!ODT: 1844
!!!ARE: Europa, Mitteleuropa, Deutschland
!!!SCT: B0768
!!!TXL: @@DE
!!!YEM: Copyright 1995, estate of Helmut Schaffrath.
**kern	**text
*ICvox	*
*Ivox	*
*clefG2	*
*M4/4	*
*met(c)	*
*k[b-e-]	*
*B-:	*
=1	=1
!LO:TX:a:t=Langſam.	!
{4f	Mag
8b-	auch
8cc	die
4dd	Lie-
4cc	-be
=2	=2
2b-	wei-
4f}	-nen,
{4f#	es
=3	=3
4g	kommt
4a	ein
4b-	Tag
4cc	des
=4	=4
2dd	Herrn
4r}	.
{4f	es
=5	=5
4b-	muß
4dd	ein
4ff	Mer-
4ee-	-gen-
=6	=6
4ee-}	-ſtern
{4cc	nach
8ffL	dunk-
8ee-J	.
8ddL	-ler
8ccJ	.
=7	=7
(<4b-	Nacht
4a	.
4g)	.
(8ddL	er-
8ccJ)	.
=8	=8
4b-	-ſchei-
(<4a	-nen.
4b-)	.
4r}	.
==	==
!!!AGN: Trost - Lied, religioes
!!!GTL: Religioese Lieder
!!!ONB: ESAC (Essen Associative Code) Database: BOEHME
!!!AMT: simple quadruple
!!!AIN: vox
!!!EED: Helmut Schaffrath
!!!EEV: 1.0
!!!RDF**kern: < = below
!!Fr. Schneider. Um 1814.
!!@@COMMENT:"Gedicht von Friedrich Adolf Krummacher. 1808. Das Lied ist auch von Harder u. A. komponirt."
!!@@END:
!!!Text: F. A. Krummacher
!!!URL-scan: https://archive.org/details/BoehmeVtLieder1895/page/n613/mode/2up
!!!ENC: Anna Maria Matuszewska
!!!EEV: 2024/19/07
*-	*-
